X: 4
T:Lark in the Morning, The
M:6/8
L:1/8
R:Double Jig
K:D
AFA AFA|~B3 BdB|AFA AFA|fed BdB|!
AFA AFA|~B3 BAB|def afe|1fdB BdB:|2fdB BAB|!
|:def afa|baf afe|def afe|fdB BAB|!
def afa|baf afd|~g3 ~f3|edB BAB:|!
|:d2f fef|fef fef|d2f fef|edB BAB|!
d2f fef|fef fef|~g3 ~f3|1edB BAB:|2edB BdB|!
|:Add fdd|ede fdB|Add fdd|edB BAF|!
Add fdd|ede fed|~g3 ~f3|1edB BAF:|2edB BdB|]!
